src/renderer/assets/svg/icon-unlock-warning.svg

<svg id="unlock_icon" width="31" height="30" viewBox="0 0 31 30" fill="none" xmlns="http://www.w3.org/2000/svg">
<path fill-rule="evenodd" clip-rule="evenodd" d="M23 10.625H21.75V8.125C21.75 4.675 18.95 1.875 15.5 1.875C12.65 1.875 10.1625 3.8 9.45 6.5625C9.275 7.2375 9.675 7.9125 10.35 8.0875C11.0125 8.2625 11.7 7.8625 11.875 7.1875C12.3 5.5375 13.7875 4.375 15.5 4.375C17.5625 4.375 19.25 6.0625 19.25 8.125V10.625H8C6.625 10.625 5.5 11.75 5.5 13.125V25.625C5.5 27 6.625 28.125 8 28.125H23C24.375 28.125 25.5 27 25.5 25.625V13.125C25.5 11.75 24.375 10.625 23 10.625ZM15.5 16.875C14.125 16.875 13 18 13 19.375C13 20.75 14.125 21.875 15.5 21.875C16.875 21.875 18 20.75 18 19.375C18 18 16.875 16.875 15.5 16.875ZM21.75 25.625C22.4375 25.625 23 25.0625 23 24.375V14.375C23 13.6875 22.4375 13.125 21.75 13.125H9.25C8.5625 13.125 8 13.6875 8 14.375V24.375C8 25.0625 8.5625 25.625 9.25 25.625H21.75Z" fill="#F3BA2F"/>
</svg>

<svg xmlns="http://www.w3.org/2000/svg" width="31" height="30" fill="none" viewBox="0 0 31 30"><path fill="#F3BA2F" fill-rule="evenodd" d="M23 10.625h-1.25v-2.5c0-3.45-2.8-6.25-6.25-6.25a6.245 6.245 0 0 0-6.05 4.688c-.175.675.225 1.35.9 1.525a1.25 1.25 0 0 0 1.525-.9A3.745 3.745 0 0 1 15.5 4.374a3.761 3.761 0 0 1 3.75 3.75v2.5H8a2.507 2.507 0 0 0-2.5 2.5v12.5c0 1.375 1.125 2.5 2.5 2.5h15c1.375 0 2.5-1.125 2.5-2.5v-12.5c0-1.375-1.125-2.5-2.5-2.5m-7.5 6.25a2.507 2.507 0 0 0-2.5 2.5c0 1.375 1.125 2.5 2.5 2.5s2.5-1.125 2.5-2.5-1.125-2.5-2.5-2.5m6.25 8.75c.688 0 1.25-.562 1.25-1.25v-10c0-.687-.562-1.25-1.25-1.25H9.25c-.687 0-1.25.563-1.25 1.25v10c0 .688.563 1.25 1.25 1.25z" clip-rule="evenodd"/></svg>
